svgs/blindmate.svg

<svg width="192" height="192" viewBox="0 0 192 192" fill="none" xmlns="http://www.w3.org/2000/svg">
<path d="M48.9038 152.095C25.0256 121.709 22 98.7014 22 89.0427C22 79.384 25.7712 65.7529 38.0327 59.8444C50.2952 53.9359 61.0903 58.4459 65.6742 62.4351C70.258 66.4263 77.0084 76.7774 79.6114 83.8731C81.7681 89.7519 88.3151 90.0246 93.0905 88.879C97.8008 87.7493 118.396 84.2798 132.333 95.0781C146.271 105.876 146.486 119.681 145.784 124.348C145.082 129.015 140.706 144.041 124.283 149.25C107.86 154.46 99.1931 156 85.957 156C72.7218 156 58.3639 155.043 56.2566 154.879C54.1493 154.717 50.2429 153.653 48.9009 152.096L48.9038 152.095Z" stroke="black" stroke-width="12" stroke-miterlimit="15" stroke-linecap="round" stroke-linejoin="round"/>
<path d="M38 90C38 84.7072 40.117 77.2377 47 74" stroke="black" stroke-width="12" stroke-miterlimit="15" stroke-linecap="round" stroke-linejoin="round"/>
<path d="M66 41.1765C67.4701 40.0537 68.9611 39.0551 70.4308 38.196C73.4487 36.4304 84.4314 29.6467 90.5418 32.8453C98.0935 36.8008 105.469 53.5988 108.26 62.7516C111.051 71.9044 112.876 71.6037 120.284 71.8218C127.691 72.0389 132.482 71.4802 142.977 74.3353C170.228 81.5004 169.906 90.3156 170 94.8657C169.726 104.225 166.812 112.433 163.146 119" stroke="black" stroke-width="12" stroke-miterlimit="15" stroke-linecap="round" stroke-linejoin="round"/>
</svg>

<svg width="192" height="192" viewBox="0 0 192 192" fill="none" xmlns="http://www.w3.org/2000/svg"><path d="M48.904 152.095C25.026 121.709 22 98.701 22 89.043c0-9.659 3.771-23.29 16.033-29.199 12.262-5.908 23.057-1.398 27.641 2.591 4.584 3.991 11.334 14.342 13.937 21.438 2.157 5.879 8.704 6.152 13.48 5.006 4.71-1.13 25.305-4.6 39.242 6.2 13.938 10.797 14.153 24.602 13.451 29.269-.702 4.667-5.078 19.693-21.501 24.902-16.423 5.21-25.09 6.75-38.326 6.75-13.235 0-27.593-.957-29.7-1.121-2.108-.162-6.014-1.226-7.356-2.783l.003-.001Z" stroke="#000" stroke-width="12" stroke-miterlimit="15" stroke-linecap="round" stroke-linejoin="round"/><path d="M38 90c0-5.293 2.117-12.762 9-16M66 41.176a43.508 43.508 0 0 1 4.43-2.98c3.019-1.766 14.001-8.55 20.112-5.35 7.552 3.955 14.927 20.753 17.718 29.906 2.791 9.152 4.616 8.852 12.024 9.07 7.407.217 12.198-.342 22.693 2.513 27.251 7.165 26.929 15.98 27.023 20.53-.274 9.36-3.188 17.568-6.854 24.135" stroke="#000" stroke-width="12" stroke-miterlimit="15" stroke-linecap="round" stroke-linejoin="round"/></svg>
